src/svg/device-laptop.svg

<svg version="1.2" baseProfile="tiny" xmlns="http://www.w3.org/2000/svg" width="24" height="24" viewBox="0 0 24 24"><path d="M21.989 16.049c.009-.315.011-.657.011-1.049v-9c0-1.654-1.346-3-3-3h-14c-1.654 0-3 1.346-3 3v9c0 .385.002.73.012 1.049-1.145.228-2.012 1.24-2.012 2.451 0 1.378 1.122 2.5 2.5 2.5h19c1.378 0 2.5-1.122 2.5-2.5 0-1.211-.866-2.222-2.011-2.451zm-17.989-10.049c0-.551.449-1 1-1h14c.551 0 1 .449 1 1v9c0 .388-.005.726-.014 1h-.986v-9c0-.55-.45-1-1-1h-12c-.55 0-1 .45-1 1v9h-.98c-.012-.264-.02-.599-.02-1v-9zm14 10h-12v-9h12v9zm3.5 3h-19c-.271 0-.5-.229-.5-.5s.229-.5.5-.5h19c.271 0 .5.229.5.5s-.229.5-.5.5z"/></svg>

<?xml version="1.0" encoding="iso-8859-1"?>
<!-- Generator: Adobe Illustrator 16.2.1, SVG Export Plug-In . SVG Version: 6.00 Build 0)  -->
<svg version="1.2" baseProfile="tiny" xmlns="http://www.w3.org/2000/svg" xmlns:xlink="http://www.w3.org/1999/xlink" x="0px"
	 y="0px" width="24px" height="24px" viewBox="0 0 24 24" xml:space="preserve">
<g id="Layer_1">
	<path d="M21.989,16.049C21.998,15.734,22,15.392,22,15V6c0-1.654-1.346-3-3-3H5C3.346,3,2,4.346,2,6v9
		c0,0.385,0.002,0.73,0.012,1.049C0.867,16.277,0,17.289,0,18.5C0,19.878,1.122,21,2.5,21h19c1.378,0,2.5-1.122,2.5-2.5
		C24,17.289,23.134,16.278,21.989,16.049z M4,6c0-0.551,0.449-1,1-1h14c0.551,0,1,0.449,1,1v9c0,0.388-0.005,0.726-0.014,1H19V7
		c0-0.55-0.45-1-1-1H6C5.45,6,5,6.45,5,7v9H4.02C4.008,15.736,4,15.401,4,15V6z M18,16H6V7h12V16z M21.5,19h-19
		C2.229,19,2,18.771,2,18.5S2.229,18,2.5,18h0.639H6h12h2.903H21.5c0.271,0,0.5,0.229,0.5,0.5S21.771,19,21.5,19z"/>
</g>
<g id="nyt_x5F_exporter_x5F_info" display="none">
</g>
</svg>
